X:1
T:Ackworth, 11.11.11.11
T:Ackworth, 11.11.11.11
T:M. B. Willis, 1901
T:Public Domain Courtesy of the Cyber Hymnal™
C:M. B. Willis, 1901
Z:Public Domain
Z:Courtesy of the Cyber Hymnal™
%%score ( 1 2 ) 3
L:1/8
Q:1/4=110
M:3/4
K:Bb
V:1 treble 
V:2 treble 
V:3 bass 
V:1
 ([DF][CE]) | [B,D]2 [DF]2 [EG]2 | [EB]2 [DB]3 [DB] | [Ec]2 [Ec]2 [Fd]2 | [DB]4 (BA) | %5
 [EG]2 [EG]3 [EB] | [EB]2 [DF]2 [DB]2 | [=EG]2 [EG]2 [Ec]2 | [Ec]4 ([DF][CE]) | %9
 [B,D]2 [DF]2 [EG]2 | [EB]2 [DB]2 [DB]2 | [Ec]2 [Dc]2 [^Fd]2 | [DB]4 ([DB][DB]) | %13
 [Ec]2 [EB]2 [EG]2 | [DF]2 [DB]2 ([B,D][CE]) | [EG]2 [CF]2 [EF]2 | [DF]4 |] %17
V:2
 x2 | x6 | x6 | x6 | x4 D2 | x6 | x6 | x6 | x6 | x6 | x6 | x6 | x6 | x6 | x6 | x6 | x4 |] %17
V:3
 ([B,,B,][B,,B,]) | [B,,F,]2 [B,,F,]2 [B,,B,]2 | [B,,G,]2 [B,,F,]3 [B,,F,] | %3
 [F,A,]2 [F,A,]2 [F,A,]2 | [B,,B,]4 [B,,B,]2 | [E,B,]2 [E,B,]3 [E,G,] | %6
 [B,,G,]2 [B,,F,]2 [B,,F,]2 | [C,B,]2 [C,B,]2 [C,B,]2 | [F,A,]4 ([F,A,][F,A,]) | %9
 [B,,F,]2 [B,,F,]2 [B,,B,]2 | [B,,G,]2 [B,,F,]2 [B,,F,]2 | [F,A,]2 [^F,A,]2 [D,A,]2 | %12
 [G,B,]4 ([G,B,][G,B,]) | [E,G,]2 [E,G,]2 [E,B,]2 | [F,B,]2 [F,,F,]2 [F,,F,]2 | %15
 [F,,F,]2 [F,,A,]2 [F,,C]2 | [B,,B,]4 |] %17

